X: 10055
T: LEIF'S REEL
C: Bob McQuillen 2 June 93
B: Bob's Note Book 10 #55
%R: reel
Z: 2020 John Chambers <jc:trillian.mit.edu>
M: C
L: 1/8
K: G	% and Em
Bd \
| g2dc BGBd | gbaf gdef | g2dc BGED | GBdB Adef |\
| gedc BGBd | gbaf g2de | gbag e2ge | dBAB G2  :|
|: Bd \
| edBA GEGA | Bdeg dBGA | B2BA GEGB | ABGE FDGA |\
| BdBA GEGA | Bdeg dBde | g2bg edBA | GEFD E2  :|
%%begintext align
%% Last month I was playing
%% dances with great Fairbanks fiddler Rex Blazer in Anchorage and in
%% Juneau (AK). We had such fun playing together. Jim Haask called in Anchorage,
%% and Tom Paul called in Juneau. We sure had a wonderful time. It was in Juneau
%% that I met a young fiddler named Leif Saya. He's well on his way to being
%% a real fine fiddler, and you'll be hearing from him someday before long.
%% Good Luck to you, Leif!
%%endtext

%%sep 1 1 500

%%sep 1 1 500

